X: 447
M: 6/8
L: 1/8
K: A
V: 1
|:\
|:\
E2G B2e | d2c B3 | ecA e2a | g2f e3 |\
fdB df2 | ecA ce2 | dBG AdB | {c}TB3 A3 |]
V: 2 clef=bass middle=d
|:\
|:\
e3 g3 | b2a g2e | a3 c'3 | e'2d' c'2a |
d'3 b3 | c'3 a3 | b3 c2d | e3 A3 |]

